X: 90
T:Paddy Taylor's Reel
R:reel
S:Jerry O'Sullivan
Z: B.Black modified to suit Boston version - Alf
M:4/4
L:1/8
Q:1/2=112
K:D
FEDF ABAF | GE=cE dEcE | FEDF ABAF | GE=cE ED D2 :|
Addc d3 A | Beed e3 e | fgfe d3 A | (3Bcd AF ED D2 |
Addc d3 A | Bdef g3 g | afge d2 dA | (3Bcd AF ED D2 |]
FEFG AddF | GddF GddA | FEFG Addc | ABGA ED D2 :|
